images/svg/043-mothers-day.svg

<svg id="e1bd87ezmjcu1" xmlns="http://www.w3.org/2000/svg" xmlns:xlink="http://www.w3.org/1999/xlink" viewBox="0 0 511.985000 511.985000" shape-rendering="geometricPrecision" text-rendering="geometricPrecision"><style><![CDATA[#e1bd87ezmjcu3_to {animation: e1bd87ezmjcu3_to__to 3000ms linear 1 normal forwards}@keyframes e1bd87ezmjcu3_to__to { 0% {transform: translate(256.001511px,299.818260px)} 33.333333% {transform: translate(256.001511px,332.278271px)} 66.666667% {transform: translate(256.001511px,299.818260px)} 100% {transform: translate(266.030182px,344.817509px)} }#e1bd87ezmjcu3_ts {animation: e1bd87ezmjcu3_ts__ts 3000ms linear 1 normal forwards}@keyframes e1bd87ezmjcu3_ts__ts { 0% {transform: scale(0.500000,0.500000)} 33.333333% {transform: scale(1,1)} 66.666667% {transform: scale(0.500000,0.500000)} 100% {transform: scale(1,1)} }#e1bd87ezmjcu5_to {animation: e1bd87ezmjcu5_to__to 3000ms linear 1 normal forwards}@keyframes e1bd87ezmjcu5_to__to { 0% {transform: translate(256.000954px,194.387855px)} 33.333333% {transform: translate(260.395628px,132.783210px)} 66.666667% {transform: translate(256.001505px,189.600613px)} 100% {transform: translate(256.001502px,144.148964px)} }#e1bd87ezmjcu5_ts {animation: e1bd87ezmjcu5_ts__ts 3000ms linear 1 normal forwards}@keyframes e1bd87ezmjcu5_ts__ts { 0% {transform: scale(0.500000,0.500000)} 33.333333% {transform: scale(1,1)} 66.666667% {transform: scale(0.500000,0.500000)} 100% {transform: scale(1,1)} }#e1bd87ezmjcu6_ts {animation: e1bd87ezmjcu6_ts__ts 3000ms linear 1 normal forwards}@keyframes e1bd87ezmjcu6_ts__ts { 0% {transform: translate(256.001511px,255.466003px) scale(0.500000,0.500000)} 33.333333% {transform: translate(256.001511px,255.466003px) scale(1,1)} 66.666667% {transform: translate(256.001511px,255.466003px) scale(0.500000,0.500000)} 100% {transform: translate(256.001511px,255.466003px) scale(1,1)} }#e1bd87ezmjcu7_to {animation: e1bd87ezmjcu7_to__to 3000ms linear 1 normal forwards}@keyframes e1bd87ezmjcu7_to__to { 0% {transform: translate(255.991699px,211.443750px)} 33.333333% {transform: translate(255.991699px,176.888868px)} 66.666667% {transform: translate(256.001509px,211.443750px)} 100% {transform: translate(256.001509px,178.983739px)} }#e1bd87ezmjcu7_ts {animation: e1bd87ezmjcu7_ts__ts 3000ms linear 1 normal forwards}@keyframes e1bd87ezmjcu7_ts__ts { 0% {transform: scale(0.500000,0.500000)} 33.333333% {transform: scale(1,1)} 66.666667% {transform: scale(0.500000,0.500000)} 100% {transform: scale(1,1)} }#e1bd87ezmjcu8_to {animation: e1bd87ezmjcu8_to__to 3000ms linear 1 normal forwards}@keyframes e1bd87ezmjcu8_to__to { 0% {transform: translate(255.991695px,346.070373px)} 33.333333% {transform: translate(260.395628px,420.652743px)} 66.666667% {transform: translate(255.991695px,343.589002px)} 100% {transform: translate(255.991646px,420.652743px)} }#e1bd87ezmjcu8_ts {animation: e1bd87ezmjcu8_ts__ts 3000ms linear 1 normal forwards}@keyframes e1bd87ezmjcu8_ts__ts { 0% {transform: scale(0.500000,0.500000)} 33.333333% {transform: scale(1,1)} 66.666667% {transform: scale(0.500000,0.500000)} 100% {transform: scale(1,1)} }#e1bd87ezmjcu11_to {animation: e1bd87ezmjcu11_to__to 3000ms linear 1 normal forwards}@keyframes e1bd87ezmjcu11_to__to { 0% {transform: translate(220.976693px,348.066510px)} 33.333333% {transform: translate(182.539916px,429.210818px)} 66.666667% {transform: translate(216.644252px,343.589005px)} 100% {transform: translate(184.285459px,424.652749px)} }#e1bd87ezmjcu11_ts {animation: e1bd87ezmjcu11_ts__ts 3000ms linear 1 normal forwards}@keyframes e1bd87ezmjcu11_ts__ts { 0% {transform: scale(0.500000,0.500000)} 33.333333% {transform: scale(1,1)} 66.666667% {transform: scale(0.500000,0.500000)} 100% {transform: scale(1,1)} }#e1bd87ezmjcu14_to {animation: e1bd87ezmjcu14_to__to 3000ms linear 1 normal forwards}@keyframes e1bd87ezmjcu14_to__to { 0% {transform: translate(299.743074px,343.066510px)} 33.333333% {transform: translate(328.367885px,437.023077px)} 66.666667% {transform: translate(299.743074px,343.589005px)} 100% {transform: translate(328.367885px,420.652749px)} }#e1bd87ezmjcu14_ts {animation: e1bd87ezmjcu14_ts__ts 3000ms linear 1 normal forwards}@keyframes e1bd87ezmjcu14_ts__ts { 0% {transform: scale(0.500000,0.500000)} 33.333333% {transform: scale(1,1)} 66.666667% {transform: scale(0.500000,0.500000)} 100% {transform: scale(1,1)} }#e1bd87ezmjcu17_ts {animation: e1bd87ezmjcu17_ts__ts 3000ms linear 1 normal forwards}@keyframes e1bd87ezmjcu17_ts__ts { 0% {transform: translate(255.991745px,255.991997px) scale(0.500000,0.500000)} 33.333333% {transform: translate(255.991745px,255.991997px) scale(1,1)} 66.666667% {transform: translate(255.991745px,255.991997px) scale(0.500000,0.500000)} 100% {transform: translate(255.991745px,255.991997px) scale(1,1)} }#e1bd87ezmjcu18_to {animation: e1bd87ezmjcu18_to__to 3000ms linear 1 normal forwards}@keyframes e1bd87ezmjcu18_to__to { 0% {transform: translate(357.898379px,294.818258px)} 33.333333% {transform: translate(459.795248px,322.278267px)} 66.666667% {transform: translate(357.898379px,294.818258px)} 100% {transform: translate(461.446519px,325.559112px)} }#e1bd87ezmjcu18_ts {animation: e1bd87ezmjcu18_ts__ts 3000ms linear 1 normal forwards}@keyframes e1bd87ezmjcu18_ts__ts { 0% {transform: scale(0.500000,0.500000)} 33.333333% {transform: scale(1,1)} 66.666667% {transform: scale(0.500000,0.500000)} 100% {transform: scale(1,1)} }]]></style><g id="e1bd87ezmjcu2"><g id="e1bd87ezmjcu3_to" transform="translate(256.001511,299.818260)"><g id="e1bd87ezmjcu3_ts" transform="scale(0.500000,0.500000)"><path id="e1bd87ezmjcu3" d="M206.001000,465.005000L113.163000,465.005000C64.300000,465.005000,30.082000,416.740000,46.257000,370.632000L60.013000,331.417000C75.773000,286.490000,118.190000,256.418000,165.801000,256.418000L223.986000,256.418000L223.986000,223.336000L288.016000,223.336000L288.016000,256.418000L346.201000,256.418000C393.812000,256.418000,436.229000,286.490000,451.989000,331.417000L465.745000,370.632000C481.919000,416.740000,447.701000,465.005000,398.839000,465.005000L303.384000,465.005000Z" transform="translate(-256.000793,-344.170517)" fill="rgb(160,200,255)" stroke="none" stroke-width="1"/></g></g><g id="e1bd87ezmjcu4"><g id="e1bd87ezmjcu5_to" transform="translate(256.000954,194.387855)"><g id="e1bd87ezmjcu5_ts" transform="scale(0.500000,0.500000)"><path id="e1bd87ezmjcu5" d="M371.997000,148.045000C381.209000,126.508000,377.043000,100.614000,359.466000,83.037000C355.923000,79.494000,352.039000,76.500000,347.923000,74.045000C334.128000,36.659000,298.179000,10,256.001000,10C213.823000,10,177.874000,36.659000,164.079000,74.046000C159.963000,76.501000,156.080000,79.494000,152.536000,83.038000C134.959000,100.615000,130.793000,126.509000,140.005000,148.046000C117.081000,173.559000,117.886000,212.844000,142.427000,237.385000C167.805000,262.763000,208.950000,262.763000,234.328000,237.385000C243.465000,228.248000,249.295000,217.067000,251.849000,205.315000L260.152000,205.315000C262.706000,217.066000,268.537000,228.248000,277.673000,237.385000C303.051000,262.763000,344.196000,262.763000,369.574000,237.385000C394.116000,212.843000,394.921000,173.558000,371.997000,148.045000Z" transform="translate(-256.000954,-133.209229)" fill="rgb(198,137,102)" stroke="none" stroke-width="1"/></g></g></g><g id="e1bd87ezmjcu6_ts" transform="translate(256.001511,255.466003) scale(0.500000,0.500000)"><path id="e1bd87ezmjcu6" d="M223.987000,223.336000L223.987000,255.513000L256.002000,287.596000L288.016000,255.513000L288.016000,223.336000Z" transform="translate(-256.001511,-255.466003)" fill="rgb(242,210,189)" stroke="none" stroke-width="1"/></g><g id="e1bd87ezmjcu7_to" transform="translate(255.991699,211.443750)"><g id="e1bd87ezmjcu7_ts" transform="scale(0.500000,0.500000)"><path id="e1bd87ezmjcu7" d="M191.972000,127.296000L191.972000,163.211000C191.972000,198.574000,220.639000,227.241000,256.002000,227.241000C291.365000,227.241000,320.032000,198.574000,320.032000,163.211000L320.032000,127.296000L279.613000,127.296000L245.810000,115.412000L215.690000,127.296000Z" transform="translate(-256.002007,-171.326496)" fill="rgb(242,210,189)" stroke="none" stroke-width="1"/></g></g><g id="e1bd87ezmjcu8_to" transform="translate(255.991695,346.070373)"><g id="e1bd87ezmjcu8_ts" transform="scale(0.500000,0.500000)"><path id="e1bd87ezmjcu8" d="M241.795000,496.116000L183.511000,437.832000C163.494000,417.815000,163.494000,385.360000,183.511000,365.342000C203.528000,345.325000,235.983000,345.325000,256.001000,365.342000C276.018000,345.325000,308.473000,345.325000,328.491000,365.342000C348.508000,385.359000,348.508000,417.814000,328.491000,437.832000L270.207000,496.116000C262.361000,503.961000,249.641000,503.961000,241.795000,496.116000Z" transform="translate(-256.001007,-426.164505)" fill="rgb(255,122,122)" stroke="none" stroke-width="1"/></g></g><g id="e1bd87ezmjcu9"><g id="e1bd87ezmjcu10"><g id="e1bd87ezmjcu11_to" transform="translate(220.976693,348.066510)"><g id="e1bd87ezmjcu11_ts" transform="scale(0.500000,0.500000)"><path id="e1bd87ezmjcu11" d="M175.739000,398.419000L149.971000,398.419000L149.971000,465.005000L175.739000,465.005000C194.126000,465.005000,209.032000,450.099000,209.032000,431.712000C209.032000,413.325000,194.126000,398.419000,175.739000,398.419000Z" transform="translate(-179.501495,-431.712006)" fill="rgb(242,210,189)" stroke="none" stroke-width="1"/></g></g></g></g><g id="e1bd87ezmjcu12"><g id="e1bd87ezmjcu13"><g id="e1bd87ezmjcu14_to" transform="translate(299.743074,343.066510)"><g id="e1bd87ezmjcu14_ts" transform="scale(0.500000,0.500000)"><path id="e1bd87ezmjcu14" d="M336.264000,398.419000L362.032000,398.419000L362.032000,465.005000L336.264000,465.005000C317.877000,465.005000,302.971000,450.099000,302.971000,431.712000C302.971000,413.325000,317.877000,398.419000,336.264000,398.419000Z" transform="translate(-332.501511,-431.712006)" fill="rgb(242,210,189)" stroke="none" stroke-width="1"/></g></g></g></g><g id="e1bd87ezmjcu15"><g id="e1bd87ezmjcu16"><g id="e1bd87ezmjcu17_ts" transform="translate(255.991745,255.991997) scale(0.500000,0.500000)"><path id="e1bd87ezmjcu17" d="M476.391000,371.046000C474.808000,365.755000,469.238000,362.751000,463.946000,364.329000C458.654000,365.911000,455.647000,371.483000,457.229000,376.774000C462.773000,395.317000,459.289000,414.898000,447.670000,430.499000C436.071000,446.072000,418.273000,455.005000,398.839000,455.005000L372.031000,455.005000L372.031000,408.419000L394.355000,408.419000C399.877000,408.419000,404.355000,403.941000,404.355000,398.419000C404.355000,392.897000,399.877000,388.419000,394.355000,388.419000L352.060000,388.419000C349.564000,377.066000,343.885000,366.595000,335.562000,358.271000C323.992000,346.701000,308.608000,340.329000,292.246000,340.329000C279.024000,340.329000,266.442000,344.489000,255.995000,352.191000C232.042000,334.595000,198.089000,336.623000,176.440000,358.271000C168.117000,366.595000,162.438000,377.067000,159.942000,388.419000L117.647000,388.419000C112.125000,388.419000,107.647000,392.897000,107.647000,398.419000C107.647000,403.941000,112.125000,408.419000,117.647000,408.419000L139.971000,408.419000L139.971000,455.005000L113.163000,455.005000C93.158000,455.005000,75.050000,445.645000,63.479000,429.325000C51.909000,413.005000,49.071000,392.819000,55.693000,373.942000L69.449000,334.727000C83.781000,293.869000,122.502000,266.417000,165.801000,266.417000L221.079000,266.417000L249.260000,294.658000C251.136000,296.538000,253.682000,297.595000,256.338000,297.595000C258.994000,297.595000,261.540000,296.538000,263.416000,294.658000L291.597000,266.417000L346.201000,266.417000C374.757000,266.417000,402.204000,278.497000,421.505000,299.560000C423.478000,301.712000,426.175000,302.804000,428.881000,302.804000C431.294000,302.804000,433.715000,301.936000,435.634000,300.177000C439.706000,296.446000,439.982000,290.119000,436.251000,286.048000C418.966000,267.185000,396.216000,254.349000,371.538000,249.091000C373.296000,247.632000,375.006000,246.094000,376.645000,244.455000C403.352000,217.747000,405.852000,175.683000,383.388000,146.140000C391.428000,121.520000,385.122000,94.553000,366.536000,75.965000C363.329000,72.759000,359.814000,69.873000,356.055000,67.359000C339.633000,26.929000,299.860000,-0,256,-0C212.142000,-0,172.368000,26.929000,155.945000,67.360000C152.187000,69.873000,148.673000,72.757000,145.464000,75.965000C126.878000,94.553000,120.572000,121.520000,128.612000,146.140000C106.148000,175.683000,108.648000,217.747000,135.355000,244.455000C136.995000,246.095000,138.701000,247.640000,140.460000,249.099000C99.389000,257.835000,64.856000,287.396000,50.575000,328.105000L36.819000,367.320000C28.023000,392.396000,31.793000,419.212000,47.163000,440.891000C62.532000,462.570000,86.588000,475.003000,113.162000,475.003000L206.540000,475.003000L234.723000,503.186000C240.588000,509.051000,248.293000,511.984000,255.998000,511.984000C263.703000,511.984000,271.409000,509.051000,277.275000,503.186000L305.458000,475.003000L398.837000,475.003000C424.652000,475.003000,448.298000,463.135000,463.708000,442.442000C479.141000,421.727000,483.763000,395.702000,476.391000,371.046000ZM278.016000,251.715000L256.338000,273.439000L233.986000,251.040000L233.986000,233.899000C240.943000,236.070000,248.338000,237.241000,256.001000,237.241000C263.664000,237.241000,271.058000,236.070000,278.016000,233.899000ZM256.001000,217.241000C226.209000,217.241000,201.971000,193.004000,201.971000,163.212000L201.971000,137.297000L213.246000,137.297000C225.736000,137.297000,237.500000,132.340000,246.193000,123.864000C255.383000,132.206000,267.577000,137.297000,280.937000,137.297000L310.031000,137.297000L310.031000,163.212000C310.032000,193.004000,285.793000,217.241000,256.001000,217.241000ZM147.443000,154.729000C150.045000,151.833000,150.729000,147.692000,149.199000,144.113000C141.265000,125.564000,145.350000,104.366000,159.606000,90.110000C162.489000,87.227000,165.717000,84.713000,169.201000,82.635000C171.165000,81.463000,172.669000,79.654000,173.461000,77.508000C186.152000,43.110000,219.323000,20,256,20C292.679000,20,325.850000,43.110000,338.541000,77.508000C339.333000,79.654000,340.837000,81.463000,342.801000,82.635000C346.286000,84.713000,349.514000,87.228000,352.395000,90.109000C366.652000,104.366000,370.737000,125.564000,362.803000,144.113000C361.273000,147.692000,361.957000,151.834000,364.559000,154.729000C384.073000,176.447000,383.169000,209.648000,362.503000,230.314000C345.395000,247.422000,319.050000,251.174000,298.016000,240.100000L298.016000,224.117000C317.340000,210.746000,330.032000,188.438000,330.032000,163.212000L330.032000,127.297000C330.032000,121.775000,325.554000,117.297000,320.032000,117.297000L280.938000,117.297000C263.434000,117.297000,249.194000,103.056000,249.194000,85.552000C249.194000,80.030000,244.716000,75.552000,239.194000,75.552000C233.672000,75.552000,229.194000,80.030000,229.194000,85.552000C229.194000,93.411000,230.963000,100.861000,234.111000,107.539000C228.999000,113.651000,221.388000,117.297000,213.247000,117.297000L191.972000,117.297000C186.450000,117.297000,181.972000,121.775000,181.972000,127.297000L181.972000,163.212000C181.972000,188.438000,194.664000,210.745000,213.988000,224.117000L213.988000,240.100000C192.959000,251.169000,166.592000,247.407000,149.500000,230.314000C128.833000,209.647000,127.929000,176.446000,147.443000,154.729000ZM175.739000,455.005000L159.971000,455.005000L159.971000,408.419000L175.739000,408.419000C188.583000,408.419000,199.032000,418.868000,199.032000,431.712000C199.032000,444.556000,188.583000,455.005000,175.739000,455.005000ZM292.971000,431.712000C292.971000,439.602000,295.103000,446.998000,298.805000,453.375000L263.136000,489.045000C259.202000,492.978000,252.802000,492.981000,248.866000,489.045000L213.197000,453.376000C216.899000,446.999000,219.031000,439.602000,219.031000,431.712000C219.031000,409.473000,202.175000,391.106000,180.569000,388.695000C182.571000,382.608000,185.973000,377.021000,190.582000,372.413000C206.668000,356.325000,232.844000,356.325000,248.930000,372.413000C250.806000,374.288000,253.349000,375.342000,256.001000,375.342000C258.653000,375.342000,261.197000,374.288000,263.072000,372.413000C270.864000,364.620000,281.224000,360.328000,292.245000,360.328000C303.266000,360.328000,313.627000,364.620000,321.419000,372.413000C326.027000,377.021000,329.430000,382.608000,331.432000,388.695000C309.827000,391.106000,292.971000,409.474000,292.971000,431.712000ZM352.032000,455.005000L336.264000,455.005000C323.420000,455.005000,312.971000,444.556000,312.971000,431.712000C312.971000,418.868000,323.420000,408.419000,336.264000,408.419000L352.032000,408.419000Z" transform="translate(-255.991745,-255.991997)" fill="rgb(0,0,0)" stroke="none" stroke-width="1"/></g><g id="e1bd87ezmjcu18_to" transform="translate(357.898379,294.818258)"><g id="e1bd87ezmjcu18_ts" transform="scale(0.500000,0.500000)"><path id="e1bd87ezmjcu18" d="M451.992000,341.420000C454.622000,341.420000,457.202000,340.350000,459.061000,338.490000C460.921000,336.630000,461.992000,334.050000,461.992000,331.420000C461.992000,328.780000,460.922000,326.210000,459.061000,324.350000C457.202000,322.491000,454.622000,321.420000,451.992000,321.420000C449.351000,321.420000,446.782000,322.490000,444.922000,324.350000C443.062000,326.210000,441.992000,328.781000,441.992000,331.420000C441.992000,334.050000,443.061000,336.620000,444.922000,338.490000C446.782000,340.350000,449.361000,341.420000,451.992000,341.420000Z" transform="translate(-451.992004,-331.420013)" fill="rgb(0,0,0)" stroke="none" stroke-width="1"/></g></g></g></g></g></svg>

<svg id="Capa_1" enable-background="new 0 0 511.985 511.985" height="512" viewBox="0 0 511.985 511.985" width="512" xmlns="http://www.w3.org/2000/svg"><g id="XMLID_1524_"><path id="XMLID_2556_" d="m206.001 465.005h-92.838c-48.863 0-83.081-48.265-66.906-94.373l13.756-39.215c15.76-44.927 58.177-74.999 105.788-74.999h58.185v-33.082h64.03v33.082h58.185c47.611 0 90.028 30.072 105.788 74.999l13.756 39.215c16.174 46.108-18.044 94.373-66.906 94.373h-95.455z" fill="#a0c8ff"/><g id="XMLID_2019_"><path id="XMLID_2020_" d="m371.997 148.045c9.212-21.537 5.046-47.431-12.531-65.008-3.543-3.543-7.427-6.537-11.543-8.992-13.795-37.386-49.744-64.045-91.922-64.045-42.178 0-78.127 26.659-91.922 64.046-4.116 2.455-7.999 5.448-11.543 8.992-17.577 17.577-21.743 43.471-12.531 65.008-22.924 25.513-22.119 64.798 2.422 89.339 25.378 25.378 66.523 25.378 91.901 0 9.137-9.137 14.967-20.318 17.521-32.07h8.303c2.554 11.751 8.385 22.933 17.521 32.07 25.378 25.378 66.523 25.378 91.901 0 24.542-24.542 25.347-63.827 2.423-89.34z" fill="#c68966"/></g><path id="XMLID_2012_" d="m223.987 223.336v32.177l32.015 32.083 32.014-32.083v-32.177z" fill="#f2d2bd"/><path id="XMLID_2011_" d="m191.972 127.296v35.915c0 35.363 28.667 64.03 64.03 64.03 35.363 0 64.03-28.667 64.03-64.03v-35.915h-40.419l-33.803-11.884-30.12 11.884z" fill="#f2d2bd"/><path id="XMLID_2502_" d="m241.795 496.116-58.284-58.284c-20.017-20.017-20.017-52.472 0-72.49 20.017-20.017 52.472-20.017 72.49 0 20.017-20.017 52.472-20.017 72.49 0 20.017 20.017 20.017 52.472 0 72.49l-58.284 58.284c-7.846 7.845-20.566 7.845-28.412 0z" fill="#ff7a7a"/><g id="XMLID_2014_"><g id="XMLID_2427_"><path id="XMLID_2429_" d="m175.739 398.419h-25.768v66.586h25.768c18.387 0 33.293-14.906 33.293-33.293 0-18.387-14.906-33.293-33.293-33.293z" fill="#f2d2bd"/></g></g><g id="XMLID_2420_"><g id="XMLID_2422_"><path id="XMLID_2430_" d="m336.264 398.419h25.768v66.586h-25.768c-18.387 0-33.293-14.906-33.293-33.293 0-18.387 14.906-33.293 33.293-33.293z" fill="#f2d2bd"/></g></g><g id="XMLID_1637_"><g id="XMLID_1638_"><path id="XMLID_1641_" d="m476.391 371.046c-1.583-5.291-7.153-8.295-12.445-6.717-5.292 1.582-8.299 7.154-6.717 12.445 5.544 18.543 2.06 38.124-9.559 53.725-11.599 15.573-29.397 24.506-48.831 24.506h-26.808v-46.586h22.324c5.522 0 10-4.478 10-10s-4.478-10-10-10h-42.295c-2.496-11.353-8.175-21.824-16.498-30.148-11.57-11.57-26.954-17.942-43.316-17.942-13.222 0-25.804 4.16-36.251 11.862-23.953-17.596-57.906-15.568-79.555 6.08-8.323 8.324-14.002 18.796-16.498 30.148h-42.295c-5.522 0-10 4.478-10 10s4.478 10 10 10h22.324v46.586h-26.808c-20.005 0-38.113-9.36-49.684-25.68-11.57-16.32-14.408-36.506-7.786-55.383l13.756-39.215c14.332-40.858 53.053-68.31 96.352-68.31h55.278l28.181 28.241c1.876 1.88 4.422 2.937 7.078 2.937s5.202-1.057 7.078-2.937l28.181-28.241h54.604c28.556 0 56.003 12.08 75.304 33.143 1.973 2.152 4.67 3.244 7.376 3.244 2.413 0 4.834-.868 6.753-2.627 4.072-3.731 4.348-10.058.617-14.129-17.285-18.863-40.035-31.699-64.713-36.957 1.758-1.459 3.468-2.997 5.107-4.636 26.707-26.708 29.207-68.772 6.743-98.315 8.04-24.62 1.734-51.587-16.852-70.175-3.207-3.206-6.722-6.092-10.481-8.606-16.422-40.43-56.195-67.359-100.055-67.359-43.858 0-83.632 26.929-100.055 67.36-3.758 2.513-7.272 5.397-10.481 8.605-18.586 18.588-24.892 45.555-16.852 70.175-22.464 29.543-19.964 71.607 6.743 98.315 1.64 1.64 3.346 3.185 5.105 4.644-41.071 8.736-75.604 38.297-89.885 79.006l-13.756 39.215c-8.796 25.076-5.026 51.892 10.344 73.571 15.369 21.679 39.425 34.112 65.999 34.112h93.378l28.183 28.183c5.865 5.865 13.57 8.798 21.275 8.798s15.411-2.933 21.277-8.798l28.183-28.183h93.379c25.815 0 49.461-11.868 64.871-32.561 15.433-20.715 20.055-46.74 12.683-71.396zm-198.375-119.331-21.678 21.724-22.352-22.399v-17.141c6.957 2.171 14.352 3.342 22.015 3.342s15.057-1.171 22.015-3.342zm-22.015-34.474c-29.792 0-54.03-24.237-54.03-54.029v-25.915h11.275c12.49 0 24.254-4.957 32.947-13.433 9.19 8.342 21.384 13.433 34.744 13.433h29.094v25.915c.001 29.792-24.238 54.029-54.03 54.029zm-108.558-62.512c2.602-2.896 3.286-7.037 1.756-10.616-7.934-18.549-3.849-39.747 10.407-54.003 2.883-2.883 6.111-5.397 9.595-7.475 1.964-1.172 3.468-2.981 4.26-5.127 12.691-34.398 45.862-57.508 82.539-57.508 36.679 0 69.85 23.11 82.541 57.508.792 2.146 2.296 3.955 4.26 5.127 3.485 2.078 6.713 4.593 9.594 7.474 14.257 14.257 18.342 35.455 10.408 54.004-1.53 3.579-.846 7.721 1.756 10.616 19.514 21.718 18.61 54.919-2.056 75.585-17.108 17.108-43.453 20.86-64.487 9.786v-15.983c19.324-13.371 32.016-35.679 32.016-60.905v-35.915c0-5.522-4.478-10-10-10h-39.094c-17.504 0-31.744-14.241-31.744-31.745 0-5.522-4.478-10-10-10s-10 4.478-10 10c0 7.859 1.769 15.309 4.917 21.987-5.112 6.112-12.723 9.758-20.864 9.758h-21.275c-5.522 0-10 4.478-10 10v35.915c0 25.226 12.692 47.533 32.016 60.905v15.983c-21.029 11.069-47.396 7.307-64.488-9.786-20.667-20.667-21.571-53.868-2.057-75.585zm28.296 300.276h-15.768v-46.586h15.768c12.844 0 23.293 10.449 23.293 23.293s-10.449 23.293-23.293 23.293zm117.232-23.293c0 7.89 2.132 15.286 5.834 21.663l-35.669 35.67c-3.934 3.933-10.334 3.936-14.27 0l-35.669-35.669c3.702-6.377 5.834-13.774 5.834-21.664 0-22.239-16.856-40.606-38.462-43.017 2.002-6.087 5.404-11.674 10.013-16.282 16.086-16.088 42.262-16.088 58.348 0 1.876 1.875 4.419 2.929 7.071 2.929s5.196-1.054 7.071-2.929c7.792-7.793 18.152-12.085 29.173-12.085s21.382 4.292 29.174 12.085c4.608 4.608 8.011 10.195 10.013 16.282-21.605 2.411-38.461 20.779-38.461 43.017zm59.061 23.293h-15.768c-12.844 0-23.293-10.449-23.293-23.293s10.449-23.293 23.293-23.293h15.768z"/><path id="XMLID_1640_" d="m451.992 341.42c2.63 0 5.21-1.07 7.069-2.93 1.86-1.86 2.931-4.44 2.931-7.07 0-2.64-1.07-5.21-2.931-7.07-1.859-1.859-4.439-2.93-7.069-2.93-2.641 0-5.21 1.07-7.07 2.93s-2.93 4.431-2.93 7.07c0 2.63 1.069 5.2 2.93 7.07 1.86 1.86 4.439 2.93 7.07 2.93z"/></g></g></g></svg>
